packages/components/icon/src/assets/icons/section.svg

<svg width="24" height="24" viewBox="0 0 24 24" fill="none" xmlns="http://www.w3.org/2000/svg">
<path fill-rule="evenodd" clip-rule="evenodd" d="M13.0227 4C13.5434 4 14.0243 4.12655 14.4654 4.37965C14.9065 4.63275 15.2536 4.97985 15.5067 5.42097C15.7598 5.86209 15.8864 6.34297 15.8864 6.86364V7.81818H17.3182V20.2273H6.81818V7.81818H8.25V6.86364C8.25 6.34297 8.37655 5.86209 8.62965 5.42097C8.88275 4.97985 9.22985 4.63275 9.67097 4.37965C10.1121 4.12655 10.593 4 11.1136 4H13.0227ZM11.1136 5.43182C10.7231 5.43182 10.3869 5.57283 10.1049 5.85486C9.82283 6.13688 9.68182 6.47314 9.68182 6.86364V7.81818H14.4545V6.86364C14.4545 6.47314 14.3135 6.13688 14.0315 5.85486C13.7495 5.57283 13.4132 5.43182 13.0227 5.43182H11.1136ZM4.43182 20.2273C4.04132 20.2273 3.70506 20.0899 3.42304 19.8151C3.14101 19.5403 3 19.2004 3 18.7955V9.25C3 8.8595 3.14101 8.52325 3.42304 8.24122C3.70506 7.95919 4.04132 7.81818 4.43182 7.81818H5.38636V20.2273H4.43182ZM19.7045 7.81818C20.095 7.81818 20.4313 7.95919 20.7133 8.24122C20.9954 8.52325 21.1364 8.8595 21.1364 9.25V18.7955C21.1364 19.2004 20.9954 19.5403 20.7133 19.8151C20.4313 20.0899 20.095 20.2273 19.7045 20.2273H18.75V7.81818H19.7045Z" fill="currentColor"/>
</svg>

<svg viewBox="0 0 24 24" fill="none" xmlns="http://www.w3.org/2000/svg"><path fill-rule="evenodd" clip-rule="evenodd" d="M13.023 4a2.849 2.849 0 0 1 2.484 1.421c.253.441.38.922.38 1.443v.954h1.431v12.41h-10.5V7.817H8.25v-.954A2.849 2.849 0 0 1 9.671 4.38 2.85 2.85 0 0 1 11.114 4h1.909Zm-1.91 1.432c-.39 0-.726.14-1.008.423a1.377 1.377 0 0 0-.423 1.009v.954h4.772v-.954c0-.39-.14-.727-.423-1.01a1.377 1.377 0 0 0-1.008-.422h-1.91Zm-6.68 14.795c-.39 0-.727-.137-1.009-.412A1.367 1.367 0 0 1 3 18.795V9.25c0-.39.141-.727.423-1.009a1.377 1.377 0 0 1 1.009-.423h.954v12.41h-.954ZM19.704 7.818c.391 0 .727.141 1.01.423.281.282.422.619.422 1.009v9.546c0 .404-.14.744-.423 1.02a1.395 1.395 0 0 1-1.009.411h-.954V7.818h.954Z" fill="currentColor"/></svg>
